src/assets/updog-open-arms.svg

<svg fill="none" height="160" viewBox="0 0 160 160" width="160" xmlns="http://www.w3.org/2000/svg"><ellipse cx="88.8826" cy="144.142" fill="#dbdfdf" rx="71.0554" ry="15.0947"/><path d="m41.4748 115.018-4.1316-12.37s-2.5564-6.0685-5.546-18.3717c-.7945-4.178-1.0749-8.4242-1.6303-14.2262l-.6488-6.0404s-17.3327-54.27901 24.1259-58.95693c19.0872-2.15382 30.5856-2.52981 45.0735 4.13943 4.8485 4.0194 12.7875 11.427 14.0285 17.5923 3.84 19.0873-.265 22.2377 1.903 27.8183 3.043 7.8267 6.984 7.6196 8.675 11.5061-1.035 8.6237 3.026 15.0758 4.722 17.1916 1.434 1.7939 6.51 5.7622 9.777 11.7629 6.55 12.0296 5.025 30.3956 5.025 30.3956l-65.5144 11.706s-20.5785 2.94-28.4719-3.003l-.5976-6.609" fill="#e4b652"/><path d="m44.9515 41.5463s8.4011-9.4454 20.4604-10.5797c12.0594-1.1342 19.2769 8.3466 19.2769 8.3466" stroke="#544b43" stroke-linecap="round" stroke-linejoin="round" stroke-miterlimit="10"/><path d="m65.1157 35.6735s-7.6209-.3108-6.5226 5.6613c.132.7097.6349 1.3343 1.3561 1.5081.874.2064 2.2922.0162 4.4762-1.5884 0 0 .7692-.7547 1.7483-.0759.9846.6773 2.027 1.8671 4.2861 1.0424.9286-.3407 1.4338-1.0214 1.7064-1.7083.5559-1.3989.1092-3.0097-1.1432-3.8508-1.0509-.7101-2.8515-1.2813-5.9073-.9884z" fill="#544b43"/><path d="m27.543 56.2105s30.3556 20.697 85.893-7.3589l2.299 7.1289s-57.3716 30.0107-87.0422 5.0593z" fill="#16d2aa"/><path d="m64.9627 87.7649c4.3454 0 7.868-3.7547 7.868-8.3864 0-4.6316-3.5226-8.3863-7.868-8.3863s-7.868 3.7547-7.868 8.3863c0 4.6317 3.5226 8.3864 7.868 8.3864z" fill="#fff"/><path d="m64.9608 70.8047c-4.8501 0-8.787 3.9295-8.787 8.7833 0 4.8481 3.9312 8.7832 8.787 8.7832 4.8501 0 8.7869-3.9295 8.7869-8.7832 0-4.8538-3.9368-8.7833-8.7869-8.7833zm0 16.3474c-4.1808 0-7.573-3.3908-7.573-7.5698s3.3866-7.5698 7.573-7.5698c4.1807 0 7.573 3.3851 7.573 7.5698s-3.3923 7.5698-7.573 7.5698z" fill="#16d2aa"/><path d="m64.9617 87.1475c4.1824 0 7.573-3.3892 7.573-7.5699s-3.3906-7.5698-7.573-7.5698c-4.1825 0-7.573 3.3891-7.573 7.5698s3.3905 7.5699 7.573 7.5699z" fill="#fff"/><path d="m61.1664 81.4113c.244.3006.5673.4537.9757.4537.4085 0 .7318-.1531.9701-.4537.2382-.3005.3573-.7144.3573-1.2304v-2.7217l1.4522-.8733v3.6404c0 .9412-.2609 1.667-.7828 2.1717-.5219.5046-1.1856.7598-2.0024.7598-.8112 0-1.4806-.2552-2.0082-.7655-.5218-.5103-.7885-1.2304-.7885-2.166v-2.7671l1.4522-.8733v3.5893c.0114.5274.1305.9356.3744 1.2361z" fill="#16d2aa"/><path d="m69.8896 77.17c.4538.3856.6864.9809.6864 1.7861s-.2326 1.3892-.7034 1.7635c-.4708.3742-1.1856.5556-2.1443.5556h-.8679v.9413l-1.4522.8732v-6.5038h2.2974c.9984.0057 1.7245.1985 2.184.5841zm-1.0665 2.5573c.1759-.1928.261-.482.261-.8562 0-.3743-.1135-.6408-.3404-.7996-.2269-.1587-.5786-.2381-1.0551-.2381h-.8282v2.1887h.9757c.4822 0 .8112-.0964.987-.2948z" fill="#16d2aa"/><path d="m64.9996 69.8203s.6014 1.4608.0266 2.2502c-.5785.7949.3007.2632.3007.2632s.5367-1.45 0-2.5134c0 0-.1142-.58-.3273 0z" fill="#b5dfd5"/><path d="m143.002 125.375s-2.247 7.701-8.828 14.116c-1.822 1.775-3.975 3.452-6.505 4.84-2.773 1.521-5.998 2.696-9.732 3.272-19.4622 3.002-24.5093 0-24.5093 0s-3.5653-2.101 2.8216-6.01c6.3867-3.91 10.4007-5.707 10.4007-5.707s-27.3303 1.654-36.5445 1.349" fill="#e4b652"/><path d="m84.8328 136.842s-16.5985 2.37-35.9749 6.091c-9.9671 1.911-14.7713 1.725-16.9799 1.312-1.4913-.283-2.7323-1.425-2.9656-2.913-.2163-1.402.3643-3.286 3.5633-5.208 6.4038-3.846 6.7282-2.953 6.7282-2.953-7.861-8.432 2.3452-18.109 2.3452-18.109s11.134 16.837 27.2089 19.314" fill="#e4b652"/><path d="m41.3896 115.062c4.5756 9.447 20.1526 15.855 30.1894 19.881z" fill="#e4b652"/><path d="m41.3896 115.062c4.5756 9.447 20.1526 15.855 30.1894 19.881" stroke="#c58f2c" stroke-miterlimit="10" stroke-width="1.302"/><path d="m106.46 136.007c-2.467-1.298-4.594-3.357-5.825-5.931-.607-1.287-.925-2.716-.9591-4.139-.034-1.429.2156-2.852.6521-4.208.454-1.355 1.123-2.602 1.844-3.821.771-1.18 1.583-2.337 2.53-3.38 1.849-2.121 3.931-4.003 6.138-5.716l-1.526 1.429c-.516.465-.987.987-1.486 1.475-.505.482-.965 1.003-1.436 1.514-.482.499-.913 1.043-1.355 1.582-.88 1.071-1.685 2.2-2.423 3.368-.686 1.196-1.327 2.421-1.747 3.725-.431 1.299-.692 2.654-.669 4.015.011 1.361.317 2.71.839 3.975.539 1.258 1.322 2.409 2.252 3.436.914 1.026 1.986 1.933 3.171 2.676z" fill="#c48f2c"/><path d="m31.1891 62.4792-18.1718-8.5922c-2.7081-1.7425-7.25179-.6674-9.65583 2.4652-1.8164 2.3678-3.013701 8.8339 8.02473 12.0534 6.2685 9.4129 13.8361 16.6532 21.9062 18.745" fill="#e4b652"/><g fill="#c58f2c"><path d="m30.4097 62.0888-4.3217-2.2343c-1.4412-.7463-2.9061-1.4637-4.3612-2.1917l-4.375-2.1734-4.4066-2.1291.0289.0193c-1.273-.8371-3.06823-1.0932-4.88748-.6867-1.81505.3817-3.64331 1.4883-4.85283 2.9603-.63491.74-.9998 1.626-1.15776 2.4298-.15419.8133-.15069 1.5976-.06508 2.3403.18272 1.4967.71313 2.8399 1.36902 4.0912 1.36833 2.4855 5.73368 2.2462 7.90083 4.0841 2.1789 1.8319 3.0634 4.635 5.6462 6.0135-2.4546-1.5339-3.2331-4.4246-5.312-6.3241-2.08695-1.8841-6.34297-1.6889-7.60683-4.1424-.63099-1.2244-1.12101-2.5372-1.27761-3.9509-.15305-1.3872-.00634-2.9771 1.07405-4.2254 1.07121-1.2888 2.67197-2.2237 4.28096-2.5916 1.61298-.3755 3.21263-.1675 4.36253.5736l.0174.0082.0174.0081 4.4441 2.0818 4.4758 2.0376c1.4966.673 2.9793 1.3644 4.4897 2.0192z"/><path d="m9.55758 55.3769c1.11832.2575 2.15922.0875 2.32492-.3797s-.6066-1.0547-1.7248-1.3122c-1.11833-.2575-2.15922-.0875-2.32493.3797-.1657.4672.60652 1.0547 1.72481 1.3122z"/><path d="m6.69607 57.0477c.86978.2002 1.6975.0169 1.84876-.4096s-.43122-.9346-1.301-1.1348c-.86979-.2003-1.6975-.0169-1.84876.4095-.15126.4265.43122.9346 1.301 1.1349z"/><path d="m8.05794 59.1519c.95262.2194 1.83503.0866 1.97096-.2966.1359-.3832-.52622-.8716-1.47884-1.0909-.95261-.2194-1.83503-.0866-1.97093.2966-.1359.3831.52619.8716 1.47881 1.0909z"/><path d="m12.1237 58.984c1.6719.385 3.2671.0207 3.563-.8136s-.8196-1.8227-2.4915-2.2077-3.26711-.0207-3.56302.8136c-.2959.8343.81952 1.8227 2.49152 2.2077z"/></g><path d="m65.5624 41.2308.3125 4.7327s1.209 2.2176 5.0599 2.1665c.2685-.006.5324-.0514.7864-.1346.8241-.2657 2.5944-.9849 3.2023-2.3388" stroke="#544b43" stroke-linecap="round" stroke-linejoin="round" stroke-miterlimit="10"/><path d="m65.8148 45.7322s-1.1517 3.1802-4.2969 3.2831c-3.1451.1029-3.5433-1.2497-3.5433-1.2497" stroke="#544b43" stroke-linecap="round" stroke-linejoin="round" stroke-miterlimit="10"/><path d="m136.678 110.54s3.368-3.12 5.761-8.686c2.393-5.5659 6.782-2.1584 7.382.627.588 2.734 3.302 9.584-12.567 17.003l-2.352-4.875z" fill="#e4b652"/><path d="m48.3045 35.2165c1.323-.1672 2.2535-1.4264 2.0783-2.8124-.1752-1.3861-1.3897-2.3741-2.7128-2.2069-1.323.1672-2.2536 1.4264-2.0784 2.8125.1752 1.386 1.3898 2.3741 2.7129 2.2068z" fill="#544b43"/><path d="m81.4713 30.7959c1.386-.1752 2.3676-1.4409 2.1924-2.8269-.1752-1.3861-1.4408-2.3677-2.8269-2.1925-1.386.1752-2.3676 1.4409-2.1924 2.8269.1752 1.3861 1.4408 2.3677 2.8269 2.1925z" fill="#544b43"/><path d="m41.5313 8.20089s-15.7869 7.53161-21.8301 9.79941c-6.0433 2.2678-10.14411 2.6564-8.4668 10.3148 1.6774 7.6584 8.141 12.0891 10.3755 12.0326 2.3188-.0582 5.3709-.7428 5.798-6.1906.427-5.4477.5532-12.1028 5.146-16.7795 3.8784-3.9521 7.8014-6.7902 8.9228-7.57831.2644-.18454.495-.38582.6936-.61298.5346-.59991 1.2583-1.61709-.639-.98542z" fill="#544b43"/><path d="m87.2035 3.71771c-.1026 4.81363-4.1103 1.27362-5.8937 2.97974l6.4961 2.52503 6.5313 3.08392 5.3106 3.0858 4.1022 2.9669 2.807 2.4733 1.574 1.3754 8.518-16.21246z" fill="#6a5542" stroke="#544b43"/><path d="m80.9482 6.76073s1.5824-5.918056 8.5282-4.90747c6.9457 1.01058 11.9766-1.750609 18.2536-1.60231 6.278.148299 9.743.245157 11.309 2.89719 1.567 2.65203-2.019 7.32326-5.748 10.19156-2.052 1.5772-3.845 1.3587-5.042.8439-.93-.3995-1.5-.9756-1.702-1.5911-.336-1.0139-1.441-3.27402-4.939-5.42824-2.6134-1.61069-14.4501.81185-20.6598-.40353z" fill="#544b43"/><path d="m111.711 81.288-10.211-15.504 12.328-14.2776 13.086-6.0126c2.708-1.7425 7.252-.6674 9.656 2.4652 1.817 2.3678 3.014 8.8339-8.025 12.0534-6.268 9.4129-8.764 19.1838-16.834 21.2756z" fill="#e4b652"/><path d="m113.368 54.4926 2.529-3.5646c1.442-.7464.891-.9311 2.346-1.6591l4.375-2.1734 4.406-2.1291-.029.0193c1.273-.8371 3.069-1.0932 4.888-.6867 1.815.3817 3.643 1.4884 4.853 2.9603.635.74.999 1.626 1.157 2.4299.155.8132.151 1.5975.065 2.3403-.182 1.4966-.713 2.8398-1.369 4.0912-1.368 2.4854-5.733 2.2462-7.9 4.084-2.179 1.8319-5.019 12.9148-13.298 19.3539 5.618-4.3694 10.884-17.765 12.963-19.6645 2.087-1.8841 6.343-1.6889 7.607-4.1424.631-1.2244 1.121-2.5372 1.278-3.9509.153-1.3872.006-2.9771-1.074-4.2253-1.071-1.2889-2.672-2.2238-4.281-2.5917-1.613-.3755-3.213-.1675-4.363.5736l-.017.0082-.018.0081-4.444 2.0819-4.475 2.0375c-1.497.6731.91-.2246-.6.4301z" fill="#c58f2c"/><path d="m130.412 46.9941c-1.118.2575-2.159.0875-2.325-.3797-.165-.4672.607-1.0547 1.725-1.3122s2.159-.0875 2.325.3797-.607 1.0547-1.725 1.3122z" fill="#c58f2c"/><path d="m133.274 48.657c-.87.2003-1.698.0169-1.849-.4095-.151-.4265.431-.9346 1.301-1.1349.87-.2002 1.697-.0169 1.849.4096.151.4265-.432.9346-1.301 1.1348z" fill="#c58f2c"/><path d="m131.912 50.7691c-.953.2194-1.835.0866-1.971-.2966s.526-.8716 1.479-1.091c.952-.2193 1.835-.0865 1.971.2967.135.3831-.527.8716-1.479 1.0909z" fill="#c58f2c"/><path d="m127.846 50.5855c-1.672.385-3.267.0208-3.563-.8136-.296-.8343.82-1.8227 2.492-2.2077 1.671-.3849 3.267-.0207 3.563.8136.295.8343-.82 1.8228-2.492 2.2077z" fill="#c58f2c"/><path d="m76.8096 18.719c1.6097-1.0732 5.4962-2.5756 8.1638 0" stroke="#544b43" stroke-linecap="round"/><path d="m42.4307 24.2794c1.3066-1.4268 4.7214-3.8146 7.9273-1.9511" stroke="#544b43" stroke-linecap="round"/></svg>

<svg width="160" height="160" viewBox="0 0 160 160" fill="none" xmlns="http://www.w3.org/2000/svg">
<ellipse cx="88.8826" cy="144.142" rx="71.0554" ry="15.0947" fill="#DBDFDF"/>
<path d="M41.4748 115.018L37.3432 102.648C37.3432 102.648 34.7868 96.5795 31.7972 84.2763C31.0027 80.0983 30.7223 75.8521 30.1669 70.0501L29.5181 64.0097C29.5181 64.0097 12.1854 9.73069 53.644 5.05277C72.7312 2.89895 84.2296 2.52296 98.7175 9.1922C103.566 13.2116 111.505 20.6192 112.746 26.7845C116.586 45.8718 112.481 49.0222 114.649 54.6028C117.692 62.4295 121.633 62.2224 123.324 66.1089C122.289 74.7326 126.35 81.1847 128.046 83.3005C129.48 85.0944 134.556 89.0627 137.823 95.0634C144.373 107.093 142.848 125.459 142.848 125.459L77.3336 137.165C77.3336 137.165 56.7551 140.105 48.8617 134.162L48.2641 127.553" fill="#E4B652"/>
<path d="M44.9515 41.5463C44.9515 41.5463 53.3526 32.1009 65.4119 30.9666C77.4713 29.8324 84.6888 39.3132 84.6888 39.3132" stroke="#544B43" stroke-miterlimit="10" stroke-linecap="round" stroke-linejoin="round"/>
<path d="M65.1157 35.6735C65.1157 35.6735 57.4948 35.3627 58.5931 41.3348C58.7251 42.0445 59.228 42.6691 59.9492 42.8429C60.8232 43.0493 62.2414 42.8591 64.4254 41.2545C64.4254 41.2545 65.1946 40.4998 66.1737 41.1786C67.1583 41.8559 68.2007 43.0457 70.4598 42.221C71.3884 41.8803 71.8936 41.1996 72.1662 40.5127C72.7221 39.1138 72.2754 37.503 71.023 36.6619C69.9721 35.9518 68.1715 35.3806 65.1157 35.6735Z" fill="#544B43"/>
<path d="M27.543 56.2105C27.543 56.2105 57.8986 76.9075 113.436 48.8516L115.735 55.9805C115.735 55.9805 58.3634 85.9912 28.6928 61.0398L27.543 56.2105Z" fill="#16D2AA"/>
<path d="M64.9627 87.7649C69.3081 87.7649 72.8307 84.0102 72.8307 79.3785C72.8307 74.7469 69.3081 70.9922 64.9627 70.9922C60.6173 70.9922 57.0947 74.7469 57.0947 79.3785C57.0947 84.0102 60.6173 87.7649 64.9627 87.7649Z" fill="white"/>
<path d="M64.9608 70.8047C60.1107 70.8047 56.1738 74.7342 56.1738 79.588C56.1738 84.4361 60.105 88.3712 64.9608 88.3712C69.8109 88.3712 73.7477 84.4417 73.7477 79.588C73.7477 74.7342 69.8109 70.8047 64.9608 70.8047ZM64.9608 87.1521C60.78 87.1521 57.3878 83.7613 57.3878 79.5823C57.3878 75.4033 60.7744 72.0125 64.9608 72.0125C69.1415 72.0125 72.5338 75.3976 72.5338 79.5823C72.5338 83.767 69.1415 87.1521 64.9608 87.1521Z" fill="#16D2AA"/>
<path d="M64.9617 87.1475C69.1441 87.1475 72.5347 83.7583 72.5347 79.5776C72.5347 75.3969 69.1441 72.0078 64.9617 72.0078C60.7792 72.0078 57.3887 75.3969 57.3887 79.5776C57.3887 83.7583 60.7792 87.1475 64.9617 87.1475Z" fill="white"/>
<path d="M61.1664 81.4113C61.4104 81.7119 61.7337 81.865 62.1421 81.865C62.5506 81.865 62.8739 81.7119 63.1122 81.4113C63.3504 81.1108 63.4695 80.6969 63.4695 80.1809V77.4592L64.9217 76.5859V80.2263C64.9217 81.1675 64.6608 81.8933 64.1389 82.398C63.617 82.9026 62.9533 83.1578 62.1365 83.1578C61.3253 83.1578 60.6559 82.9026 60.1283 82.3923C59.6065 81.882 59.3398 81.1619 59.3398 80.2263V77.4592L60.792 76.5859V80.1752C60.8034 80.7026 60.9225 81.1108 61.1664 81.4113Z" fill="#16D2AA"/>
<path d="M69.8896 77.17C70.3434 77.5556 70.576 78.1509 70.576 78.9561C70.576 79.7613 70.3434 80.3453 69.8726 80.7196C69.4018 81.0938 68.687 81.2752 67.7283 81.2752H66.8604V82.2165L65.4082 83.0897V76.5859H67.7056C68.704 76.5916 69.4301 76.7844 69.8896 77.17ZM68.8231 79.7273C68.999 79.5345 69.0841 79.2453 69.0841 78.8711C69.0841 78.4968 68.9706 78.2303 68.7437 78.0715C68.5168 77.9128 68.1651 77.8334 67.6886 77.8334H66.8604V80.0221H67.8361C68.3183 80.0221 68.6473 79.9257 68.8231 79.7273Z" fill="#16D2AA"/>
<path d="M64.9996 69.8203C64.9996 69.8203 65.601 71.2811 65.0262 72.0705C64.4477 72.8654 65.3269 72.3337 65.3269 72.3337C65.3269 72.3337 65.8636 70.8837 65.3269 69.8203C65.3269 69.8203 65.2127 69.2403 64.9996 69.8203Z" fill="#B5DFD5"/>
<path d="M143.002 125.375C143.002 125.375 140.755 133.076 134.174 139.491C132.352 141.266 130.199 142.943 127.669 144.331C124.896 145.852 121.671 147.027 117.937 147.603C98.4748 150.605 93.4277 147.603 93.4277 147.603C93.4277 147.603 89.8624 145.502 96.2493 141.593C102.636 137.683 106.65 135.886 106.65 135.886C106.65 135.886 79.3197 137.54 70.1055 137.235" fill="#E4B652"/>
<path d="M84.8328 136.842C84.8328 136.842 68.2343 139.212 48.8579 142.933C38.8908 144.844 34.0866 144.658 31.878 144.245C30.3867 143.962 29.1457 142.82 28.9124 141.332C28.6961 139.93 29.2767 138.046 32.4757 136.124C38.8795 132.278 39.2039 133.171 39.2039 133.171C31.3429 124.739 41.5491 115.062 41.5491 115.062C41.5491 115.062 52.6831 131.899 68.758 134.376" fill="#E4B652"/>
<path d="M41.3896 115.062C45.9652 124.509 61.5422 130.917 71.579 134.943L41.3896 115.062Z" fill="#E4B652"/>
<path d="M41.3896 115.062C45.9652 124.509 61.5422 130.917 71.579 134.943" stroke="#C58F2C" stroke-width="1.302" stroke-miterlimit="10"/>
<path d="M106.46 136.007C103.993 134.709 101.866 132.65 100.635 130.076C100.028 128.789 99.71 127.36 99.6759 125.937C99.6419 124.508 99.8915 123.085 100.328 121.729C100.782 120.374 101.451 119.127 102.172 117.908C102.943 116.728 103.755 115.571 104.702 114.528C106.551 112.407 108.633 110.525 110.84 108.812L109.314 110.241C108.798 110.706 108.327 111.228 107.828 111.716C107.323 112.198 106.863 112.719 106.392 113.23C105.91 113.729 105.479 114.273 105.037 114.812C104.157 115.883 103.352 117.012 102.614 118.18C101.928 119.376 101.287 120.601 100.867 121.905C100.436 123.204 100.175 124.559 100.198 125.92C100.209 127.281 100.515 128.63 101.037 129.895C101.576 131.153 102.359 132.304 103.289 133.331C104.203 134.357 105.275 135.264 106.46 136.007Z" fill="#C48F2C"/>
<path d="M31.1891 62.4792L13.0173 53.887C10.3092 52.1445 5.76551 53.2196 3.36147 56.3522C1.54507 58.72 0.347769 65.1861 11.3862 68.4056C17.6547 77.8185 25.2223 85.0588 33.2924 87.1506" fill="#E4B652"/>
<path d="M30.4097 62.0888L26.088 59.8545C24.6468 59.1082 23.1819 58.3908 21.7268 57.6628L17.3518 55.4894L12.9452 53.3603L12.9741 53.3796C11.7011 52.5425 9.90587 52.2864 8.08662 52.6929C6.27157 53.0746 4.44331 54.1812 3.23379 55.6532C2.59888 56.3932 2.23399 57.2792 2.07603 58.083C1.92184 58.8963 1.92534 59.6806 2.01095 60.4233C2.19367 61.92 2.72408 63.2632 3.37997 64.5145C4.7483 67 9.11365 66.7607 11.2808 68.5986C13.4597 70.4305 14.3442 73.2336 16.927 74.6121C14.4724 73.0782 13.6939 70.1875 11.615 68.288C9.52805 66.4039 5.27203 66.5991 4.00817 64.1456C3.37718 62.9212 2.88716 61.6084 2.73056 60.1947C2.57751 58.8075 2.72422 57.2176 3.80461 55.9693C4.87582 54.6805 6.47658 53.7456 8.08557 53.3777C9.69855 53.0022 11.2982 53.2102 12.4481 53.9513L12.4655 53.9595L12.4829 53.9676L16.927 56.0494L21.4028 58.087C22.8994 58.76 24.3821 59.4514 25.8925 60.1062L30.4097 62.0888Z" fill="#C58F2C"/>
<path d="M9.55758 55.3769C10.6759 55.6344 11.7168 55.4644 11.8825 54.9972C12.0482 54.53 11.2759 53.9425 10.1577 53.685C9.03937 53.4275 7.99848 53.5975 7.83277 54.0647C7.66707 54.5319 8.43929 55.1194 9.55758 55.3769Z" fill="#C58F2C"/>
<path d="M6.69607 57.0477C7.56585 57.2479 8.39357 57.0646 8.54483 56.6381C8.69609 56.2116 8.11361 55.7035 7.24383 55.5033C6.37404 55.303 5.54633 55.4864 5.39507 55.9128C5.24381 56.3393 5.82629 56.8474 6.69607 57.0477Z" fill="#C58F2C"/>
<path d="M8.05794 59.1519C9.01056 59.3713 9.89297 59.2385 10.0289 58.8553C10.1648 58.4721 9.50268 57.9837 8.55006 57.7644C7.59745 57.545 6.71503 57.6778 6.57913 58.061C6.44323 58.4441 7.10532 58.9326 8.05794 59.1519Z" fill="#C58F2C"/>
<path d="M12.1237 58.984C13.7956 59.369 15.3908 59.0047 15.6867 58.1704C15.9826 57.3361 14.8671 56.3477 13.1952 55.9627C11.5233 55.5777 9.92809 55.942 9.63218 56.7763C9.33628 57.6106 10.4517 58.599 12.1237 58.984Z" fill="#C58F2C"/>
<path d="M65.5624 41.2308L65.8749 45.9635C65.8749 45.9635 67.0839 48.1811 70.9348 48.13C71.2033 48.124 71.4672 48.0786 71.7212 47.9954C72.5453 47.7297 74.3156 47.0105 74.9235 45.6566" stroke="#544B43" stroke-miterlimit="10" stroke-linecap="round" stroke-linejoin="round"/>
<path d="M65.8148 45.7322C65.8148 45.7322 64.6631 48.9124 61.5179 49.0153C58.3728 49.1182 57.9746 47.7656 57.9746 47.7656" stroke="#544B43" stroke-miterlimit="10" stroke-linecap="round" stroke-linejoin="round"/>
<path d="M136.678 110.54C136.678 110.54 140.046 107.42 142.439 101.854C144.832 96.2881 149.221 99.6956 149.821 102.481C150.409 105.215 153.123 112.065 137.254 119.484L134.902 114.609L136.678 110.54Z" fill="#E4B652"/>
<path d="M48.3045 35.2165C49.6275 35.0493 50.558 33.7901 50.3828 32.4041C50.2076 31.018 48.9931 30.03 47.67 30.1972C46.347 30.3644 45.4164 31.6236 45.5916 33.0097C45.7668 34.3957 46.9814 35.3838 48.3045 35.2165Z" fill="#544B43"/>
<path d="M81.4713 30.7959C82.8573 30.6207 83.8389 29.355 83.6637 27.969C83.4885 26.5829 82.2229 25.6013 80.8368 25.7765C79.4508 25.9517 78.4692 27.2174 78.6444 28.6034C78.8196 29.9895 80.0852 30.9711 81.4713 30.7959Z" fill="#544B43"/>
<path d="M41.5313 8.20089C41.5313 8.20089 25.7444 15.7325 19.7012 18.0003C13.6579 20.2681 9.55709 20.6567 11.2344 28.3151C12.9118 35.9735 19.3754 40.4042 21.6099 40.3477C23.9287 40.2895 26.9808 39.6049 27.4079 34.1571C27.8349 28.7094 27.9611 22.0543 32.5539 17.3776C36.4323 13.4255 40.3553 10.5874 41.4767 9.79929C41.7411 9.61475 41.9717 9.41347 42.1703 9.18631C42.7049 8.5864 43.4286 7.56922 41.5313 8.20089Z" fill="#544B43"/>
<path d="M87.2035 3.71771C87.1009 8.53134 83.0932 4.99133 81.3098 6.69745L87.8059 9.22248L94.3372 12.3064L99.6478 15.3922L103.75 18.3591L106.557 20.8324L108.131 22.2078L116.649 5.99534L87.2035 3.71771Z" fill="#6A5542" stroke="#544B43"/>
<path d="M80.9482 6.76073C80.9482 6.76073 82.5306 0.842674 89.4764 1.85326C96.4221 2.86384 101.453 0.102651 107.73 0.25095C114.008 0.399249 117.473 0.496107 119.039 3.14814C120.606 5.80017 117.02 10.4714 113.291 13.3397C111.239 14.9169 109.446 14.6984 108.249 14.1836C107.319 13.7841 106.749 13.208 106.547 12.5925C106.211 11.5786 105.106 9.31848 101.608 7.16426C98.9946 5.55357 87.1579 7.97611 80.9482 6.76073Z" fill="#544B43"/>
<path d="M111.711 81.288L101.5 65.784L113.828 51.5064L126.914 45.4938C129.622 43.7513 134.166 44.8264 136.57 47.959C138.387 50.3268 139.584 56.7929 128.545 60.0124C122.277 69.4253 119.781 79.1962 111.711 81.288Z" fill="#E4B652"/>
<path d="M113.368 54.4926L115.897 50.928C117.339 50.1816 116.788 49.9969 118.243 49.2689L122.618 47.0955L127.024 44.9664L126.995 44.9857C128.268 44.1486 130.064 43.8925 131.883 44.299C133.698 44.6807 135.526 45.7874 136.736 47.2593C137.371 47.9993 137.735 48.8853 137.893 49.6892C138.048 50.5024 138.044 51.2867 137.958 52.0295C137.776 53.5261 137.245 54.8693 136.589 56.1207C135.221 58.6061 130.856 58.3669 128.689 60.2047C126.51 62.0366 123.67 73.1195 115.391 79.5586C121.009 75.1892 126.275 61.7936 128.354 59.8941C130.441 58.01 134.697 58.2052 135.961 55.7517C136.592 54.5273 137.082 53.2145 137.239 51.8008C137.392 50.4136 137.245 48.8237 136.165 47.5755C135.094 46.2866 133.493 45.3517 131.884 44.9838C130.271 44.6083 128.671 44.8163 127.521 45.5574L127.504 45.5656L127.486 45.5737L123.042 47.6556L118.567 49.6931C117.07 50.3662 119.477 49.4685 117.967 50.1232L113.368 54.4926Z" fill="#C58F2C"/>
<path d="M130.412 46.9941C129.294 47.2516 128.253 47.0816 128.087 46.6144C127.922 46.1472 128.694 45.5597 129.812 45.3022C130.93 45.0447 131.971 45.2147 132.137 45.6819C132.303 46.1491 131.53 46.7366 130.412 46.9941Z" fill="#C58F2C"/>
<path d="M133.274 48.657C132.404 48.8573 131.576 48.6739 131.425 48.2475C131.274 47.821 131.856 47.3129 132.726 47.1126C133.596 46.9124 134.423 47.0957 134.575 47.5222C134.726 47.9487 134.143 48.4568 133.274 48.657Z" fill="#C58F2C"/>
<path d="M131.912 50.7691C130.959 50.9885 130.077 50.8557 129.941 50.4725C129.805 50.0893 130.467 49.6009 131.42 49.3815C132.372 49.1622 133.255 49.295 133.391 49.6782C133.526 50.0613 132.864 50.5498 131.912 50.7691Z" fill="#C58F2C"/>
<path d="M127.846 50.5855C126.174 50.9705 124.579 50.6063 124.283 49.7719C123.987 48.9376 125.103 47.9492 126.775 47.5642C128.446 47.1793 130.042 47.5435 130.338 48.3778C130.633 49.2121 129.518 50.2006 127.846 50.5855Z" fill="#C58F2C"/>
<path d="M76.8096 18.719C78.4193 17.6458 82.3058 16.1434 84.9734 18.719" stroke="#544B43" stroke-linecap="round"/>
<path d="M42.4307 24.2794C43.7373 22.8526 47.1521 20.4648 50.358 22.3283" stroke="#544B43" stroke-linecap="round"/>
</svg>
